src/assets/burger-menu.svg

<svg version="1.1" xmlns="http://www.w3.org/2000/svg" xmlns:xlink="http://www.w3.org/1999/xlink" width="800px" height="800px" viewBox="0,0,256,256"><g fill="#ffffff" fill-rule="nonzero" stroke="none" stroke-width="1" stroke-linecap="butt" stroke-linejoin="miter" stroke-miterlimit="10" stroke-dasharray="" stroke-dashoffset="0" font-family="none" font-weight="none" font-size="none" text-anchor="none" style="mix-blend-mode: normal"><g transform="scale(10.24,10.24)"><path d="M5.5,11.75c-0.41421,0 -0.75,0.3358 -0.75,0.75c0,0.4142 0.33579,0.75 0.75,0.75zM19.5,13.25c0.4142,0 0.75,-0.3358 0.75,-0.75c0,-0.4142 -0.3358,-0.75 -0.75,-0.75zM5.5,7.75c-0.41421,0 -0.75,0.33579 -0.75,0.75c0,0.41421 0.33579,0.75 0.75,0.75zM14.833,9.25c0.4142,0 0.75,-0.33579 0.75,-0.75c0,-0.41421 -0.3358,-0.75 -0.75,-0.75zM5.5,15.75c-0.41421,0 -0.75,0.3358 -0.75,0.75c0,0.4142 0.33579,0.75 0.75,0.75zM14.833,17.25c0.4142,0 0.75,-0.3358 0.75,-0.75c0,-0.4142 -0.3358,-0.75 -0.75,-0.75zM5.5,13.25h14v-1.5h-14zM5.5,9.25h9.333v-1.5h-9.333zM5.5,17.25h9.333v-1.5h-9.333z"></path></g></g></svg>

<?xml version="1.0" encoding="utf-8"?><!-- Uploaded to: SVG Repo, www.svgrepo.com, Generator: SVG Repo Mixer Tools -->
<svg width="800px" height="800px" viewBox="0 -0.5 25 25" fill="none" xmlns="http://www.w3.org/2000/svg">
<path d="M5.5 11.75C5.08579 11.75 4.75 12.0858 4.75 12.5C4.75 12.9142 5.08579 13.25 5.5 13.25V11.75ZM19.5 13.25C19.9142 13.25 20.25 12.9142 20.25 12.5C20.25 12.0858 19.9142 11.75 19.5 11.75V13.25ZM5.5 7.75C5.08579 7.75 4.75 8.08579 4.75 8.5C4.75 8.91421 5.08579 9.25 5.5 9.25V7.75ZM14.833 9.25C15.2472 9.25 15.583 8.91421 15.583 8.5C15.583 8.08579 15.2472 7.75 14.833 7.75V9.25ZM5.5 15.75C5.08579 15.75 4.75 16.0858 4.75 16.5C4.75 16.9142 5.08579 17.25 5.5 17.25V15.75ZM14.833 17.25C15.2472 17.25 15.583 16.9142 15.583 16.5C15.583 16.0858 15.2472 15.75 14.833 15.75V17.25ZM5.5 13.25H19.5V11.75H5.5V13.25ZM5.5 9.25H14.833V7.75H5.5V9.25ZM5.5 17.25H14.833V15.75H5.5V17.25Z" fill="#000000"/>
</svg>
